X: 32893
T: Possum On The Loo, The
R: slip jig
M: 9/8
K: Dminor
D (3DDA, FDE CDA,|B,3 B,CB, A, (3A,A,G,|D (3DDB, FDE C (3DEF|G (3GGG BGA FGE|
D (3DDA, FDE CDA,|B,3 B,CB, A, (3A,A,G,|A, (3A,A,A, B,A,B, ^C2 D|E (3EEE GE^C D (3EFA||
B3 BcB A (3BAG|A (3AAF d2A G (3AGF|G (3GGE e2 ^c A2 G|F (3FFC GCG AFA|
B3 BcB A (3BAG|A (3AAF cFA G (3AGF|G (3GGG AGA B2c|^cAc e2c d3||

